X:8270
T:Jota (Payares - L.lena) (Versin 2)
C:Trad.
Z:Mtodu de Gaita
M:3/8
L:1/8
Q:1/8=192
K:C
|C3/2C/2C|CDE|FFE|
DFE|~D2C|C2B,-|B,3|
DFE|~DFE|~D2C-|C3|
|:D3/2D/2D|DCC|C2B,-|B,3|
DFE|DFE|~D2C|C3:|
